assets/images/icon-fh.svg

<svg width="26" height="21" viewBox="0 0 26 21" fill="none" xmlns="http://www.w3.org/2000/svg">
<path d="M3.76566 16.7004L2.66802 19.29C2.47751 19.7396 2.56475 20.2791 2.93152 20.6458C3.17277 20.8871 3.4888 21.0073 3.80483 21.0073C4.12086 21.0073 4.43688 20.8871 4.67813 20.6458L5.72147 19.6025L9.65979 15.6633C9.84229 15.4808 9.7132 15.1701 9.45504 15.1701H7.21703C7.20368 15.1701 7.19033 15.1683 7.17608 15.1683C4.81878 15.1683 2.9066 13.2285 2.95111 10.8615C2.99473 8.54777 4.93273 6.71749 7.24641 6.71749H12.0224C12.099 6.71749 12.1729 6.68722 12.2272 6.63292L14.1198 4.74031C14.3023 4.55782 14.1732 4.24713 13.915 4.24713H7.26867C3.5529 4.24713 0.447813 7.28723 0.480751 11.003C0.502117 13.4253 1.81608 15.5431 3.76477 16.7022L3.76566 16.7004ZM18.5442 15.1692C20.8578 15.1692 22.7958 13.3389 22.8395 11.0253C22.8831 8.71157 20.9718 6.71838 18.6145 6.71838C18.6003 6.71838 18.5851 6.7166 18.5709 6.7166H16.3346C16.0774 6.7166 15.9483 6.40502 16.1299 6.22342L20.2703 2.08301H20.2694L21.0848 1.26579C21.5504 0.800208 22.308 0.750356 22.8012 1.18745C23.2151 1.55333 23.3211 2.12396 23.1208 2.59578L22.0231 5.18453C23.9736 6.3427 25.2885 8.46053 25.3107 10.8828C25.3437 14.5986 22.2386 17.6396 18.5228 17.6396H11.8755C11.6183 17.6396 11.4892 17.328 11.6708 17.1464L13.5634 15.2538C13.6177 15.1995 13.6916 15.1692 13.7681 15.1692H18.5451H18.5442ZM17.3361 8.75163C18.5175 8.75163 19.4753 9.70951 19.4753 10.8908C19.4753 12.0721 18.5175 13.03 17.3361 13.03C16.1548 13.03 15.1969 12.0721 15.1969 10.8908C15.1969 9.70951 16.1548 8.75163 17.3361 8.75163ZM8.5942 8.75074C9.77552 8.75074 10.7334 9.70862 10.7334 10.8899C10.7334 12.0713 9.77552 13.0291 8.5942 13.0291C7.41288 13.0291 6.45501 12.0713 6.45501 10.8899C6.45501 9.70862 7.41288 8.75074 8.5942 8.75074Z" fill="url(#paint0_linear_17_6552)"/>
<defs>
<linearGradient id="paint0_linear_17_6552" x1="25.3107" y1="10.9469" x2="0.480752" y2="10.9469" gradientUnits="userSpaceOnUse">
<stop stop-color="#984AD7"/>
<stop offset="0.49" stop-color="#465CE0"/>
<stop offset="1" stop-color="#0497DC"/>
</linearGradient>
</defs>
</svg>

<svg xmlns="http://www.w3.org/2000/svg" width="26" height="21" fill="none" xmlns:v="https://vecta.io/nano"><path d="M3.766 16.7l-1.098 2.59c-.191.45-.103.989.264 1.356a1.23 1.23 0 0 0 .873.361 1.23 1.23 0 0 0 .873-.361l1.043-1.043 3.938-3.939a.29.29 0 0 0-.205-.493H7.217c-.013 0-.027-.002-.041-.002a4.23 4.23 0 0 1-4.225-4.307c.044-2.314 1.982-4.144 4.295-4.144h4.776a.29.29 0 0 0 .205-.085L14.12 4.74a.29.29 0 0 0-.205-.493H7.269c-3.716 0-6.821 3.04-6.788 6.756.021 2.422 1.335 4.54 3.284 5.699l.001-.002zm14.779-1.531c2.314 0 4.252-1.83 4.295-4.144s-1.868-4.307-4.225-4.307c-.014 0-.029-.002-.044-.002h-2.236a.29.29 0 0 1-.205-.493l4.14-4.14h-.001l.815-.817C21.55.8 22.308.75 22.801 1.187c.414.366.52.937.32 1.408l-1.098 2.589c1.951 1.158 3.265 3.276 3.288 5.698.033 3.716-3.072 6.757-6.788 6.757h-6.647a.29.29 0 0 1-.205-.493l1.893-1.893a.29.29 0 0 1 .205-.085h4.777-.001zm-1.208-6.418a2.14 2.14 0 0 1 2.139 2.139 2.14 2.14 0 0 1-2.139 2.139 2.14 2.14 0 0 1-2.139-2.139 2.14 2.14 0 0 1 2.139-2.139zm-8.742-.001a2.14 2.14 0 0 1 2.139 2.139 2.14 2.14 0 0 1-2.139 2.139 2.14 2.14 0 0 1-2.139-2.139 2.14 2.14 0 0 1 2.139-2.139z" fill="url(#A)"/><defs><linearGradient id="A" x1="25.311" y1="10.947" x2=".481" y2="10.947" gradientUnits="userSpaceOnUse"><stop stop-color="#984ad7"/><stop offset=".49" stop-color="#465ce0"/><stop offset="1" stop-color="#0497dc"/></linearGradient></defs></svg>
